priv/static/images/player-jump.svg

<svg viewBox="0 0 32 32" xmlns="http://www.w3.org/2000/svg"
    xmlns:xlink="http://www.w3.org/1999/xlink">
    <linearGradient id="a" gradientTransform="matrix(1 0 0 -1 0 -306)"
        gradientUnits="userSpaceOnUse" x1="17.249" x2="14.973" y1="-335.597" y2="-309.994">
        <stop offset="0" stop-color="#fff" stop-opacity="0" />
        <stop offset=".01" stop-color="#5556f8" stop-opacity=".04" />
        <stop offset=".09" stop-color="#555cb3" stop-opacity=".39" />
        <stop offset=".2" stop-color="#33367e" stop-opacity=".66" />
        <stop offset=".32" stop-color="#444459" stop-opacity=".86" />
        <stop offset=".5" stop-color="#555843" stop-opacity=".97" />
        <stop offset="1" stop-color="#55503d" />
    </linearGradient>
    <path
        d="m17.8 8.591c2.079 4.584 7.64 6.5 7.141 12.474-.582 7.017-5.551 8.784-8.316 8.909a8.815 8.815 0 0 1 -9.4-7.485c-1.607-7.443 5.43-18.857 9.484-20.489a15.083 15.083 0 0 0 1.091 6.591zm-.166 18.857a.423.423 0 0 0 -.057-.327c-.593-1.1-5.81-1.645-6.907-1.752a8.272 8.272 0 0 0 1.635 1.3 7.766 7.766 0 0 0 2.814 1.041c.803.121 2.348.223 2.516-.263z"
        fill="#7c648f" />
    <path
        d="m18.248 10.618c4.47 4.823 6.445 4.979 6.237 10.478-.249 6.476-4.543 8.191-7.058 8.42-4.2.551-7.495-1.528-8.358-5.686-1.757-6.767 3.909-17.807 7.568-19.47a15.323 15.323 0 0 0 1.621 6.24z"
        fill="#26003d" opacity=".25" />
    <path
        d="m17.385 9.921c2.984 4.079 6.934 3.779 7.615 9.72.094 6.923-3.6 9.283-6.237 9.948-4.5 1.279-8.514-.645-10.094-5-3.035-7 2.651-18.514 6.31-20.915a15.083 15.083 0 0 0 2.37 6.237z"
        fill="url(#a)" opacity=".75" />
</svg>

<?xml version="1.0" encoding="UTF-8" standalone="no"?>
<!DOCTYPE svg PUBLIC "-//W3C//DTD SVG 1.1//EN" "http://www.w3.org/Graphics/SVG/1.1/DTD/svg11.dtd">
<svg width="100%" height="100%" viewBox="0 0 19 29" version="1.1" xmlns="http://www.w3.org/2000/svg" xmlns:xlink="http://www.w3.org/1999/xlink" xml:space="preserve" xmlns:serif="http://www.serif.com/" style="fill-rule:evenodd;clip-rule:evenodd;stroke-linejoin:round;stroke-miterlimit:2;">
    <g transform="matrix(1.0549,0,0,1.0357,-7.37438,-2.0714)">
        <path d="M17.8,8.591C19.879,13.175 25.44,15.091 24.941,21.065C24.359,28.082 19.39,29.849 16.625,29.974C12.039,30.33 7.905,27.039 7.225,22.489C5.618,15.046 10.14,3.632 14.194,2C14.06,4.251 16.948,6.503 17.8,8.591ZM17.634,27.448C17.66,27.336 18.064,26.385 17.577,27.121C16.888,28.162 11.767,25.476 10.67,25.369C11.158,25.87 11.707,26.306 12.305,26.669C13.166,27.196 14.122,27.549 15.119,27.71C15.922,27.831 17.467,27.933 17.635,27.447L17.634,27.448Z" style="fill:rgb(124,100,143);fill-rule:nonzero;"/>
        <path d="M18.248,10.618C22.718,15.441 24.693,15.597 24.485,21.096C24.236,27.572 19.942,29.287 17.427,29.516C13.227,30.067 9.932,27.988 9.069,23.83C7.312,17.063 10.402,5.9 14.061,4.237C14.153,6.408 17.281,8.659 18.258,10.6L18.248,10.618Z" style="fill:rgb(38,0,61);fill-opacity:0.25;fill-rule:nonzero;"/>
        <clipPath id="_clip1">
            <path d="M17.385,9.921C20.369,14 24.319,13.7 25,19.641C25.094,26.564 21.4,28.924 18.763,29.589C14.263,30.868 10.249,28.944 8.669,24.589C5.634,17.589 8.472,6.075 12.131,3.674C12.445,5.904 16.103,8.035 17.349,9.911L17.385,9.921Z" clip-rule="nonzero"/>
        </clipPath>
        <g clip-path="url(#_clip1)">
            <g transform="matrix(0.947956,-0,-0,0.965529,6.99059,2)">
                <use xlink:href="#_Image2" x="0.418" y="1.734" width="19px" height="28px"/>
            </g>
        </g>
        <g transform="matrix(1.35813,0,0,1.38331,1.58441,-3.86641)">
            <circle cx="13.291" cy="16.328" r="2.286" style="fill:rgb(235,235,235);"/>
        </g>
    </g>
    <defs>
        <image id="_Image2" width="19px" height="28px" xlink:href="data:image/png;base64,iVBORw0KGgoAAAANSUhEUgAAABMAAAAcCAYAAACDBoQZAAAACXBIWXMAAA7EAAAOxAGVKw4bAAABu0lEQVRIiZ2UzW7VMBCF58yc3IJo0UW0ohIrJMSCd+DZeRb2iC7ogqvUNouJY8dx46qWrjxz5pufOL7BN/nxU167sNmEPQAt7SuNahPAEOrX3ktsgQ4/jMgyNfE8lEY12hAF5SwOe/dKNAnEADgouTtrCvBscDRY25lAXWQ81hFBkYNXsM0eTI52svEMO7US9lfjhS+gs9Lu0tbBuvqKHTQjBOnF12H56/kF8DysuyRCM1CBaDSRJFgOBCW51iAinE6cRZCvW4IbFSgJnr3uPR6AcDpNT1txmWVTpHSXLbfygCROE+ca9PErMGvVYxe+Ph4kTqdprg+ydHPAf+K7Zl8TFEk3GhLfvL261MJqK6K2WmVrrS06b87Xjzm5DrRdW7vXiDfnd397CdqdRqMqkppGaPbVn0I18f35+lFVI1STmouqcN+TNwmbmJUGUI28vf/4Jzuau1n2Pbkt5n7FKxJMI2/vPzy045buiGp5Co2kBTMLRotGC2a62jQL/PT57rfRAToYFjAW27wQNZhZ0SuOZoFfv3/5ZdRAWrRSLC5dF9sCaUFNnfECcfcluPy7nOb5yWKMr/+SLes/bRzkyZLM0mMAAAAASUVORK5CYII="/>
    </defs>
</svg>
